components/icon/svg/24/action_account.svg

<?xml version="1.0" encoding="UTF-8"?>
<svg width="24px" height="24px" viewBox="0 0 24 24" version="1.1" xmlns="http://www.w3.org/2000/svg" xmlns:xlink="http://www.w3.org/1999/xlink">
    <!-- Generator: Sketch 64 (93537) - https://sketch.com -->
    <title>ic-db_action_account_24</title>
    <desc>Created with Sketch.</desc>
    <g id="Symbols" stroke="none" stroke-width="1" fill="none" fill-rule="evenodd">
        <g id="24dp-Icon/Action/Account" fill="#282D37">
            <path d="M16.125,13.0312 C18.875,13.0312 21,15.0938 21,18.125 L21,21 C21,21.5625 20.5625,22 20,22 C19.4375,22 19,21.5625 19,21 L19,18.125 C19,15.5938 17.125,15.0312 16.21875,15.0312 C14.96875,15.6562 13.53125,16 12,16 C10.46875,16 9.03125,15.6562 7.78125,15.0312 C6.84375,15.0312 5,15.5938 5,18.125 L5,21 C5,21.5625 4.5625,22 4,22 C3.4375,22 3,21.5625 3,21 L3,18.125 C3,15.2188 5.09375,13.0312 7.71875,13.0312 C8.03125,13.0312 8.4375,13.0938 8.65625,13.2188 C9.625,13.75 10.75,14 12,14 C13.25,14 14.375,13.75 15.34375,13.2188 C15.59375,13.0938 15.875,13.0312 16.125,13.0312 Z M12,2 C14.75,2 17,4.25 17,7 C17,9.75 14.75,12 12,12 C9.25,12 7,9.75 7,7 C7,4.25 9.25,2 12,2 Z M12,4 C10.34375,4 9,5.3438 9,7 C9,8.6562 10.34375,10 12,10 C13.65625,10 15,8.6562 15,7 C15,5.3438 13.65625,4 12,4 Z" id="🎨-Color"></path>
        </g>
    </g>
</svg>

<svg width="24" height="24" xmlns="http://www.w3.org/2000/svg"><path d="M16.125 13.031c2.75 0 4.875 2.063 4.875 5.094V21c0 .563-.438 1-1 1-.563 0-1-.438-1-1v-2.875c0-2.531-1.875-3.094-2.781-3.094-1.25.625-2.688.969-4.219.969-1.531 0-2.969-.344-4.219-.969-.937 0-2.781.563-2.781 3.094V21c0 .563-.438 1-1 1-.563 0-1-.438-1-1v-2.875c0-2.906 2.094-5.094 4.719-5.094.312 0 .718.063.937.188C9.625 13.75 10.75 14 12 14s2.375-.25 3.344-.781c.25-.125.531-.188.781-.188zM12 2c2.75 0 5 2.25 5 5s-2.25 5-5 5-5-2.25-5-5 2.25-5 5-5zm0 2a3 3 0 10.002 6.002A3 3 0 0012 4z" fill="#282D37" fill-rule="evenodd"/></svg>
